packages/icons/svg/24/UsagiAlt.svg

<svg width="24" height="24" viewBox="0 0 24 24" fill="none" xmlns="http://www.w3.org/2000/svg">
<path fill-rule="evenodd" clip-rule="evenodd" d="M16 17.5C15.4476 17.5 15 17.052 15 16.5C15 15.9476 15.4476 15.5 16 15.5C16.552 15.5 17 15.9476 17 16.5C17 17.052 16.552 17.5 16 17.5ZM14.4998 6.52728C14.4998 5.31581 14.6564 3.87247 15.3998 3.87247C15.9296 3.87247 16.4998 4.70301 16.4998 6.52728C16.4998 8.35964 15.979 10.3386 15.6649 11.3675C15.2975 11.1603 14.9081 10.9821 14.4998 10.8367V6.52728ZM9.4998 10.8367C9.09187 10.9821 8.70295 11.1603 8.33549 11.3675C8.02104 10.339 7.5002 8.36085 7.5002 6.52728C7.5002 4.70301 8.07042 3.87247 8.60016 3.87247C9.34359 3.87247 9.4998 5.31581 9.4998 6.52728V10.8367ZM8 17.5C7.44759 17.5 7 17.052 7 16.5C7 15.9476 7.44759 15.5 8 15.5C8.552 15.5 9 15.9476 9 16.5C9 17.052 8.552 17.5 8 17.5ZM18 6.52729C18 3.60465 16.7248 2.375 15.3998 2.375C14.0737 2.375 13 3.34006 13 6.52729V10.4732C12.6722 10.4287 12.3403 10.398 12 10.398C11.6597 10.398 11.3278 10.4287 11 10.4732V6.52729C11 3.34006 9.92635 2.375 8.60016 2.375C7.27519 2.375 6 3.60465 6 6.52729C6 8.89287 6.76002 11.4055 7.05018 12.2764C5.78308 13.4075 5 14.9211 5 16.4533C5 20.5018 8.13395 21.5 12 21.5C15.866 21.5 19 20.5018 19 16.4533C19 14.9211 18.2169 13.4075 16.9502 12.2764C17.2396 11.4051 18 8.89287 18 6.52729Z" fill="#858585"/>
</svg>

<svg width="24" height="24" fill="none" xmlns="http://www.w3.org/2000/svg" viewBox="0 0 24 24"><path fill-rule="evenodd" clip-rule="evenodd" d="M16 17.5a1 1 0 110-2 1 1 0 010 2zM14.5 6.527c0-1.211.156-2.655.9-2.655.53 0 1.1.831 1.1 2.655 0 1.833-.521 3.812-.835 4.84a7.478 7.478 0 00-1.165-.53v-4.31zm-5 4.31a7.488 7.488 0 00-1.165.53C8.021 10.34 7.5 8.361 7.5 6.527c0-1.824.57-2.655 1.1-2.655.744 0 .9 1.444.9 2.655v4.31zM8 17.5a1 1 0 110-2 1 1 0 010 2zM18 6.527c0-2.922-1.275-4.152-2.6-4.152-1.326 0-2.4.965-2.4 4.152v3.946a7.406 7.406 0 00-1-.075c-.34 0-.672.03-1 .075V6.527c0-3.187-1.074-4.152-2.4-4.152-1.325 0-2.6 1.23-2.6 4.152 0 2.366.76 4.878 1.05 5.75C5.783 13.406 5 14.92 5 16.452c0 4.049 3.134 5.047 7 5.047s7-.998 7-5.047c0-1.532-.783-3.045-2.05-4.177.29-.87 1.05-3.383 1.05-5.749z" fill="currentColor"></path></svg>
